public/library/jito-labs-text-dark.svg

<svg width="132" height="26" viewBox="0 0 132 26" fill="none" xmlns="http://www.w3.org/2000/svg">
<path d="M16.3041 13.8181C16.3041 17.151 15.1863 19.947 12.9507 22.1995C10.7152 24.4586 7.99144 25.5849 4.77945 25.5849H0V20.7524H4.77945C6.68095 20.7524 8.2805 20.0911 9.57815 18.7618C10.8758 17.4391 11.5246 15.789 11.5246 13.8246L11.4861 0.361919H16.3041V13.8181Z" fill="white"/>
<path d="M19.7408 0.591193H24.5202L24.4431 5.34506H19.7022L19.7408 0.591193ZM19.7408 7.27017H24.5202V25.5784H19.7022L19.7408 7.27017Z" fill="white"/>
<path d="M32.8595 5.58006H41.0693V10.4518H32.7824V17.1962C32.7824 18.1981 33.0908 19.0362 33.7139 19.7172C34.337 20.3982 35.1143 20.7453 36.0458 20.7453H41.0244V25.5777H36.0907C33.8295 25.5777 31.9216 24.7592 30.367 23.1157C28.8124 21.4721 28.0351 19.475 28.0351 17.1111V0.426773H32.776L32.8531 5.5735L32.8595 5.58006Z" fill="white"/>
<path d="M59.8538 22.71C57.9523 24.6286 55.6268 25.5846 52.8773 25.5846C50.1279 25.5846 47.7703 24.622 45.8816 22.6903C43.993 20.7587 43.0486 18.3949 43.0486 15.5858C43.0486 12.7767 43.9994 10.4063 45.9009 8.46153C47.8024 6.51677 50.1279 5.54766 52.8773 5.54766C55.6268 5.54766 57.9523 6.51677 59.8538 8.46153C61.7553 10.4063 62.706 12.7767 62.706 15.5858C62.706 18.3949 61.7553 20.798 59.8538 22.71ZM56.4041 11.86C55.4662 10.8974 54.2906 10.4194 52.8773 10.4194C51.4641 10.4194 50.2692 10.917 49.2928 11.9189C48.3163 12.9207 47.8281 14.1387 47.8281 15.5858C47.8281 17.0329 48.3163 18.2573 49.2928 19.2526C50.2692 20.2545 51.4641 20.7522 52.8773 20.7522C54.2906 20.7522 55.5176 20.2611 56.4812 19.2723C57.4448 18.2836 57.9266 17.0591 57.9266 15.5858L57.811 15.3893C57.811 13.9946 57.342 12.8225 56.4041 11.86Z" fill="white"/>
<path d="M79.9035 23.4805C80.0637 23.4805 80.1896 23.5271 80.2812 23.6205C80.3727 23.7138 80.4185 23.8421 80.4185 24.0054V25.0202C80.4185 25.1835 80.3727 25.3118 80.2812 25.4051C80.1896 25.4984 80.0637 25.5451 79.9035 25.5451H68.9521C68.7919 25.5451 68.666 25.4984 68.5745 25.4051C68.4829 25.3118 68.4371 25.1835 68.4371 25.0202V1.5747C68.4371 1.41139 68.4829 1.28309 68.5745 1.18977C68.666 1.09645 68.7919 1.0498 68.9521 1.0498H70.085C70.2452 1.0498 70.3711 1.09645 70.4626 1.18977C70.5542 1.28309 70.6 1.41139 70.6 1.5747V23.4805H79.9035Z" fill="white"/>
<path d="M98.0863 8.39839C98.2465 8.39839 98.3724 8.44504 98.464 8.53836C98.5555 8.63167 98.6013 8.75998 98.6013 8.92328V25.0202C98.6013 25.1835 98.5555 25.3118 98.464 25.4051C98.3724 25.4984 98.2465 25.5451 98.0863 25.5451H97.1594C96.8619 25.5451 96.6902 25.3701 96.6445 25.0202L96.4728 22.7456C95.8091 23.7488 94.9508 24.5419 93.898 25.1252C92.8452 25.6851 91.6551 25.965 90.3276 25.965C88.7484 25.965 87.3295 25.5684 86.0707 24.7752C84.8119 23.9821 83.8277 22.9089 83.1182 21.5559C82.4088 20.1795 82.054 18.6631 82.054 17.0067C82.054 15.3504 82.4088 13.8457 83.1182 12.4926C83.8277 11.1162 84.8119 10.0314 86.0707 9.23822C87.3295 8.44504 88.7484 8.04845 90.3276 8.04845C91.678 8.04845 92.8795 8.34006 93.9323 8.92328C94.9851 9.48318 95.8434 10.2764 96.5071 11.3028L96.6445 8.92328C96.6902 8.57335 96.8619 8.39839 97.1594 8.39839H98.0863ZM90.465 24.0404C92.0213 24.0404 93.3716 23.5155 94.516 22.4657C95.6603 21.4159 96.3813 20.0861 96.6788 18.4764L96.7474 17.0067L96.6788 15.502C96.3813 13.8923 95.6603 12.5626 94.516 11.5128C93.3716 10.463 92.0213 9.93809 90.465 9.93809C89.252 9.93809 88.1534 10.2414 87.1692 10.8479C86.1851 11.4545 85.4184 12.2943 84.8691 13.3674C84.3198 14.4406 84.0452 15.642 84.0452 16.9717C84.0452 18.3015 84.3198 19.5146 84.8691 20.611C85.4184 21.6842 86.1851 22.524 87.1692 23.1306C88.1534 23.7371 89.252 24.0404 90.465 24.0404Z" fill="white"/>
<path d="M110.113 8.04845C111.692 8.04845 113.111 8.44504 114.37 9.23822C115.628 10.0314 116.613 11.1162 117.322 12.4926C118.032 13.8457 118.386 15.3504 118.386 17.0067C118.386 18.6631 118.032 20.1795 117.322 21.5559C116.613 22.9089 115.628 23.9821 114.37 24.7752C113.111 25.5684 111.692 25.965 110.113 25.965C108.785 25.965 107.595 25.6851 106.542 25.1252C105.49 24.5419 104.631 23.7488 103.968 22.7456L103.796 25.0202C103.75 25.3701 103.578 25.5451 103.281 25.5451H102.354C102.194 25.5451 102.068 25.4984 101.976 25.4051C101.885 25.3118 101.839 25.1835 101.839 25.0202V0.524899C101.839 0.361596 101.885 0.233288 101.976 0.139973C102.068 0.0466578 102.194 0 102.354 0H103.384C103.544 0 103.67 0.0466578 103.762 0.139973C103.853 0.233288 103.899 0.361596 103.899 0.524899V10.8479L103.933 11.3028C104.597 10.2764 105.455 9.48318 106.508 8.92328C107.561 8.34006 108.762 8.04845 110.113 8.04845ZM109.975 24.0404C111.188 24.0404 112.287 23.7371 113.271 23.1306C114.255 22.524 115.022 21.6842 115.571 20.611C116.121 19.5146 116.395 18.3015 116.395 16.9717C116.395 15.642 116.121 14.4406 115.571 13.3674C115.022 12.2943 114.255 11.4545 113.271 10.8479C112.287 10.2414 111.188 9.93809 109.975 9.93809C108.419 9.93809 107.069 10.463 105.924 11.5128C104.78 12.5626 104.059 13.8923 103.762 15.502L103.693 17.0067L103.762 18.4764C104.059 20.0861 104.78 21.4159 105.924 22.4657C107.069 23.5155 108.419 24.0404 109.975 24.0404Z" fill="white"/>
<path d="M122.456 12.5626C122.456 13.4024 122.788 14.0556 123.452 14.5222C124.138 14.9888 125.18 15.4787 126.576 15.9919C127.766 16.4352 128.716 16.8434 129.425 17.2167C130.135 17.59 130.741 18.1148 131.245 18.7914C131.748 19.4446 132 20.2844 132 21.3109C132 22.2207 131.737 23.0372 131.21 23.7604C130.684 24.4603 129.986 25.0085 129.116 25.4051C128.247 25.8017 127.331 26 126.37 26C125.088 26 123.898 25.7201 122.799 25.1602C121.701 24.6003 120.82 23.9237 120.156 23.1306C120.042 22.9673 119.984 22.8506 119.984 22.7806C119.984 22.7106 120.03 22.6057 120.122 22.4657L120.74 21.7658C120.854 21.6258 120.946 21.5559 121.014 21.5559C121.106 21.5559 121.243 21.6492 121.426 21.8358C121.93 22.3957 122.616 22.9206 123.486 23.4105C124.356 23.8771 125.306 24.1104 126.335 24.1104C127.457 24.1104 128.35 23.8654 129.013 23.3755C129.677 22.8623 130.009 22.1741 130.009 21.3109C130.009 20.6577 129.814 20.1095 129.425 19.6662C129.036 19.1996 128.556 18.8264 127.983 18.5464C127.411 18.2665 126.644 17.9399 125.683 17.5666C124.562 17.1467 123.646 16.7618 122.937 16.4118C122.25 16.0386 121.667 15.5487 121.186 14.9421C120.705 14.3122 120.465 13.5191 120.465 12.5626C120.465 11.6994 120.694 10.9296 121.152 10.253C121.632 9.55316 122.273 9.00494 123.074 8.60834C123.898 8.21175 124.802 8.01346 125.786 8.01346C126.679 8.01346 127.606 8.24675 128.567 8.71332C129.551 9.15657 130.386 9.78645 131.073 10.603C131.165 10.6963 131.21 10.8013 131.21 10.9179C131.21 11.0345 131.153 11.1745 131.039 11.3378L130.661 11.8277C130.57 11.9677 130.455 12.0377 130.318 12.0377C130.203 12.0377 130.066 11.956 129.906 11.7927C129.196 11.1162 128.521 10.6263 127.88 10.323C127.24 10.0197 126.507 9.8681 125.683 9.8681C124.882 9.8681 124.138 10.0897 123.452 10.533C122.788 10.9529 122.456 11.6294 122.456 12.5626Z" fill="white"/>
</svg>

<svg xmlns="http://www.w3.org/2000/svg" width="132" height="26" fill="none" viewBox="0 0 132 26"><path fill="#fff" d="M16.304 13.818q0 5.001-3.353 8.382-3.354 3.387-8.172 3.385H0v-4.833h4.78c1.901 0 3.5-.66 4.798-1.99 1.298-1.323 1.947-2.973 1.947-4.937L11.486.362h4.818zM19.74.591h4.78l-.077 4.754h-4.74zm0 6.68h4.78v18.307h-4.818zM32.86 5.58h8.21v4.872h-8.288v6.744q-.001 1.501.932 2.521a3.04 3.04 0 0 0 2.332 1.028h4.978v4.833h-4.933q-3.392.001-5.724-2.462c-1.555-1.644-2.332-3.641-2.332-6.005V.427h4.741l.077 5.147zM59.854 22.71q-2.852 2.877-6.977 2.875c-2.75 0-5.107-.963-6.995-2.895-1.889-1.931-2.833-4.295-2.833-7.104s.95-5.18 2.852-7.124q2.852-2.916 6.976-2.914 4.125-.002 6.977 2.914c1.901 1.944 2.852 4.315 2.852 7.124s-.95 5.212-2.852 7.124m-3.45-10.85c-.938-.963-2.113-1.44-3.527-1.44q-2.12-.002-3.584 1.499c-.977 1.002-1.465 2.22-1.465 3.667q0 2.172 1.465 3.667 1.464 1.502 3.584 1.5c1.414 0 2.64-.492 3.604-1.48.964-.99 1.446-2.214 1.446-3.687l-.116-.197c0-1.394-.469-2.566-1.407-3.529M79.904 23.48q.24 0 .377.14a.53.53 0 0 1 .137.385v1.015a.53.53 0 0 1-.137.385.5.5 0 0 1-.378.14h-10.95a.5.5 0 0 1-.379-.14.53.53 0 0 1-.137-.385V1.575q0-.246.138-.385a.5.5 0 0 1 .377-.14h1.133q.24 0 .378.14a.53.53 0 0 1 .137.385V23.48zM98.086 8.398q.24 0 .378.14a.53.53 0 0 1 .137.385V25.02a.53.53 0 0 1-.137.385.5.5 0 0 1-.378.14h-.927q-.446 0-.515-.525l-.171-2.274a7.27 7.27 0 0 1-2.575 2.38q-1.58.84-3.57.839-2.37 0-4.257-1.19-1.889-1.19-2.953-3.22-1.064-2.063-1.064-4.548t1.064-4.514q1.065-2.065 2.953-3.255t4.257-1.19q2.025 0 3.604.875a6.87 6.87 0 0 1 2.575 2.38l.137-2.38q.07-.525.515-.525zM90.465 24.04q2.334 0 4.051-1.574 1.716-1.575 2.163-3.99l.068-1.47-.068-1.504q-.447-2.415-2.163-3.99-1.717-1.574-4.051-1.574-1.82 0-3.296.91-1.475.909-2.3 2.52t-.824 3.604q0 1.995.824 3.639.824 1.61 2.3 2.52t3.296.91M110.113 8.048q2.368 0 4.257 1.19t2.952 3.255q1.065 2.029 1.064 4.514 0 2.484-1.064 4.549a8.27 8.27 0 0 1-2.952 3.22q-1.888 1.189-4.257 1.189-1.992 0-3.571-.84a7.26 7.26 0 0 1-2.574-2.38l-.172 2.275q-.07.525-.515.525h-.927a.5.5 0 0 1-.378-.14.53.53 0 0 1-.137-.385V.525q0-.245.137-.385a.5.5 0 0 1 .378-.14h1.03q.24 0 .378.14a.53.53 0 0 1 .137.385v10.323l.034.455a6.87 6.87 0 0 1 2.575-2.38q1.579-.875 3.605-.875m-.138 15.992q1.82 0 3.296-.91t2.3-2.519q.825-1.645.824-3.64 0-1.993-.824-3.604t-2.3-2.52-3.296-.909q-2.334 0-4.051 1.575-1.716 1.575-2.162 3.989l-.069 1.505.069 1.47q.446 2.415 2.162 3.989 1.717 1.575 4.051 1.574M122.456 12.563q0 1.26.996 1.96 1.03.7 3.124 1.469 1.785.664 2.849 1.225a5.4 5.4 0 0 1 1.82 1.574q.755.98.755 2.52 0 1.364-.79 2.45-.789 1.05-2.094 1.644a6.5 6.5 0 0 1-2.746.595 7.75 7.75 0 0 1-3.571-.84q-1.647-.84-2.643-2.03-.172-.245-.172-.35t.138-.314l.618-.7q.171-.21.274-.21.138 0 .412.28.756.84 2.06 1.575 1.305.7 2.849.7 1.683 0 2.678-.736.996-.769.996-2.064 0-.98-.584-1.645a4.3 4.3 0 0 0-1.442-1.12 31 31 0 0 0-2.3-.98q-1.682-.63-2.746-1.154a5.7 5.7 0 0 1-1.751-1.47q-.721-.945-.721-2.38 0-1.294.687-2.309a4.94 4.94 0 0 1 1.922-1.645q1.236-.594 2.712-.595 1.34 0 2.781.7a7 7 0 0 1 2.506 1.89.44.44 0 0 1 .137.315q0 .175-.171.42l-.378.49q-.137.21-.343.21-.172 0-.412-.245-1.065-1.015-2.026-1.47t-2.197-.455q-1.202 0-2.231.665-.996.63-.996 2.03"/></svg>
